images/6287034.svg

<?xml version="1.0" encoding="UTF-8"?>
<svg xmlns="http://www.w3.org/2000/svg" xmlns:xlink="http://www.w3.org/1999/xlink" width="300pt" height="300pt" viewBox="0 0 300 300" version="1.1">
<defs>
<g>
<symbol overflow="visible" id="glyph0-0">
<path style="stroke:none;" d="M 0.75 2.65625 L 0.75 -10.578125 L 8.25 -10.578125 L 8.25 2.65625 Z M 1.59375 1.8125 L 7.40625 1.8125 L 7.40625 -9.734375 L 1.59375 -9.734375 Z M 1.59375 1.8125 "/>
</symbol>
<symbol overflow="visible" id="glyph0-1">
<path style="stroke:none;" d="M 1.46875 -10.9375 L 3.46875 -10.9375 L 8.3125 -1.78125 L 8.3125 -10.9375 L 9.75 -10.9375 L 9.75 0 L 7.75 0 L 2.90625 -9.140625 L 2.90625 0 L 1.46875 0 Z M 1.46875 -10.9375 "/>
</symbol>
<symbol overflow="visible" id="glyph0-2">
<path style="stroke:none;" d="M 5.90625 -9.9375 C 4.832031 -9.9375 3.976562 -9.535156 3.34375 -8.734375 C 2.71875 -7.929688 2.40625 -6.835938 2.40625 -5.453125 C 2.40625 -4.078125 2.71875 -2.988281 3.34375 -2.1875 C 3.976562 -1.382812 4.832031 -0.984375 5.90625 -0.984375 C 6.976562 -0.984375 7.828125 -1.382812 8.453125 -2.1875 C 9.085938 -2.988281 9.40625 -4.078125 9.40625 -5.453125 C 9.40625 -6.835938 9.085938 -7.929688 8.453125 -8.734375 C 7.828125 -9.535156 6.976562 -9.9375 5.90625 -9.9375 Z M 5.90625 -11.140625 C 7.4375 -11.140625 8.660156 -10.625 9.578125 -9.59375 C 10.503906 -8.5625 10.96875 -7.179688 10.96875 -5.453125 C 10.96875 -3.734375 10.503906 -2.359375 9.578125 -1.328125 C 8.660156 -0.296875 7.4375 0.21875 5.90625 0.21875 C 4.375 0.21875 3.144531 -0.289062 2.21875 -1.3125 C 1.300781 -2.34375 0.84375 -3.722656 0.84375 -5.453125 C 0.84375 -7.179688 1.300781 -8.5625 2.21875 -9.59375 C 3.144531 -10.625 4.375 -11.140625 5.90625 -11.140625 Z M 5.90625 -11.140625 "/>
</symbol>
<symbol overflow="visible" id="glyph0-3">
<path style="stroke:none;" d="M 1.46875 -10.9375 L 2.953125 -10.9375 L 2.953125 -6.453125 L 8.328125 -6.453125 L 8.328125 -10.9375 L 9.8125 -10.9375 L 9.8125 0 L 8.328125 0 L 8.328125 -5.203125 L 2.953125 -5.203125 L 2.953125 0 L 1.46875 0 Z M 1.46875 -10.9375 "/>
</symbol>
</g>
</defs>
<g id="surface39093">
<rect x="0" y="0" width="300" height="300" style="fill:rgb(100%,100%,100%);fill-opacity:1;stroke:none;"/>
<path style="fill:none;stroke-width:1.2;stroke-linecap:butt;stroke-linejoin:miter;stroke:rgb(0%,0%,0%);stroke-opacity:1;stroke-miterlimit:10;" d="M 74.71875 217.390625 L 71.273438 181.367188 "/>
<path style="fill:none;stroke-width:1.2;stroke-linecap:butt;stroke-linejoin:miter;stroke:rgb(0%,0%,0%);stroke-opacity:1;stroke-miterlimit:10;" d="M 71.273438 181.367188 L 67.828125 145.339844 "/>
<path style="fill:none;stroke-width:1.2;stroke-linecap:butt;stroke-linejoin:miter;stroke:rgb(0%,0%,0%);stroke-opacity:1;stroke-miterlimit:10;" d="M 71.273438 181.367188 L 35.25 184.808594 "/>
<path style="fill:none;stroke-width:1.2;stroke-linecap:butt;stroke-linejoin:miter;stroke:rgb(0%,0%,0%);stroke-opacity:1;stroke-miterlimit:10;" d="M 107.300781 177.921875 L 71.273438 181.367188 "/>
<path style="fill:none;stroke-width:1.2;stroke-linecap:butt;stroke-linejoin:miter;stroke:rgb(0%,0%,0%);stroke-opacity:1;stroke-miterlimit:10;" d="M 67.828125 145.339844 L 103.855469 141.894531 "/>
<path style="fill:none;stroke-width:1.2;stroke-linecap:butt;stroke-linejoin:miter;stroke:rgb(0%,0%,0%);stroke-opacity:1;stroke-miterlimit:10;" d="M 103.855469 141.894531 L 107.300781 177.921875 "/>
<path style="fill:none;stroke-width:1.2;stroke-linecap:butt;stroke-linejoin:miter;stroke:rgb(0%,0%,0%);stroke-opacity:1;stroke-miterlimit:10;" d="M 124.371094 112.085938 L 103.855469 141.894531 "/>
<path style="fill:none;stroke-width:1.2;stroke-linecap:butt;stroke-linejoin:miter;stroke:rgb(0%,0%,0%);stroke-opacity:1;stroke-miterlimit:10;" d="M 107.300781 177.921875 L 133.09375 203.304688 "/>
<path style="fill:none;stroke-width:1.2;stroke-linecap:butt;stroke-linejoin:miter;stroke:rgb(0%,0%,0%);stroke-opacity:1;stroke-miterlimit:10;" d="M 133.09375 203.304688 L 169.167969 206.167969 "/>
<path style="fill:none;stroke-width:1.2;stroke-linecap:butt;stroke-linejoin:miter;stroke:rgb(0%,0%,0%);stroke-opacity:1;stroke-miterlimit:10;" d="M 169.167969 206.167969 L 198.644531 185.171875 "/>
<path style="fill:none;stroke-width:1.2;stroke-linecap:butt;stroke-linejoin:miter;stroke:rgb(0%,0%,0%);stroke-opacity:1;stroke-miterlimit:10;" d="M 196.230469 188.679688 L 226.042969 209.195312 "/>
<path style="fill:none;stroke-width:1.2;stroke-linecap:butt;stroke-linejoin:miter;stroke:rgb(0%,0%,0%);stroke-opacity:1;stroke-miterlimit:10;" d="M 201.058594 181.664062 L 230.871094 202.179688 "/>
<path style="fill:none;stroke-width:1.2;stroke-linecap:butt;stroke-linejoin:miter;stroke:rgb(0%,0%,0%);stroke-opacity:1;stroke-miterlimit:10;" d="M 198.644531 185.171875 L 207.730469 150.140625 "/>
<path style="fill:none;stroke-width:1.2;stroke-linecap:butt;stroke-linejoin:miter;stroke:rgb(0%,0%,0%);stroke-opacity:1;stroke-miterlimit:10;" d="M 207.730469 150.140625 L 225.742188 148.417969 "/>
<path style="fill:none;stroke-width:1.2;stroke-linecap:butt;stroke-linejoin:miter;stroke:rgb(0%,0%,100%);stroke-opacity:1;stroke-miterlimit:10;" d="M 225.742188 148.417969 L 243.753906 146.695312 "/>
<path style="fill:none;stroke-width:1.2;stroke-linecap:butt;stroke-linejoin:miter;stroke:rgb(0%,0%,0%);stroke-opacity:1;stroke-miterlimit:10;" d="M 212.144531 158.273438 L 226.550781 156.894531 "/>
<path style="fill:none;stroke-width:1.2;stroke-linecap:butt;stroke-linejoin:miter;stroke:rgb(0%,0%,100%);stroke-opacity:1;stroke-miterlimit:10;" d="M 226.550781 156.894531 L 240.960938 155.515625 "/>
<path style="fill:none;stroke-width:1.2;stroke-linecap:butt;stroke-linejoin:miter;stroke:rgb(0%,0%,0%);stroke-opacity:1;stroke-miterlimit:10;" d="M 207.730469 150.140625 L 192.171875 117.464844 "/>
<path style="fill:none;stroke-width:1.2;stroke-linecap:butt;stroke-linejoin:miter;stroke:rgb(0%,0%,100%);stroke-opacity:1;stroke-miterlimit:10;" d="M 243.753906 146.695312 L 254.253906 161.433594 "/>
<path style="fill:none;stroke-width:1.2;stroke-linecap:butt;stroke-linejoin:miter;stroke:rgb(100%,0%,0%);stroke-opacity:1;stroke-miterlimit:10;" d="M 254.253906 161.433594 L 264.75 176.171875 "/>
<path style=" stroke:none;fill-rule:nonzero;fill:rgb(100%,100%,100%);fill-opacity:1;" d="M 238.753906 137.695312 L 249.753906 137.695312 L 249.753906 155.695312 L 238.753906 155.695312 Z M 238.753906 137.695312 "/>
<g style="fill:rgb(0%,0%,100%);fill-opacity:1;">
  <use xlink:href="#glyph0-1" x="238.753906" y="151.30957"/>
</g>
<path style=" stroke:none;fill-rule:nonzero;fill:rgb(100%,100%,100%);fill-opacity:1;" d="M 253.75 167.171875 L 276.75 167.171875 L 276.75 185.171875 L 253.75 185.171875 Z M 253.75 167.171875 "/>
<g style="fill:rgb(100%,0%,0%);fill-opacity:1;">
  <use xlink:href="#glyph0-2" x="253.75" y="180.786133"/>
  <use xlink:href="#glyph0-3" x="265.298828" y="180.786133"/>
</g>
<path style="fill:none;stroke-width:1.2;stroke-linecap:butt;stroke-linejoin:miter;stroke:rgb(0%,0%,0%);stroke-opacity:1;stroke-miterlimit:10;" d="M 192.171875 117.464844 L 159.25 102.4375 "/>
<path style="fill:none;stroke-width:1.2;stroke-linecap:butt;stroke-linejoin:miter;stroke:rgb(0%,0%,0%);stroke-opacity:1;stroke-miterlimit:10;" d="M 159.25 102.4375 L 124.371094 112.085938 "/>
<path style="fill:none;stroke-width:1.2;stroke-linecap:butt;stroke-linejoin:miter;stroke:rgb(0%,0%,0%);stroke-opacity:1;stroke-miterlimit:10;" d="M 127.839844 109.617188 L 106.84375 80.140625 "/>
<path style="fill:none;stroke-width:1.2;stroke-linecap:butt;stroke-linejoin:miter;stroke:rgb(0%,0%,0%);stroke-opacity:1;stroke-miterlimit:10;" d="M 120.902344 114.554688 L 99.910156 85.078125 "/>
</g>
</svg>

<svg xmlns="http://www.w3.org/2000/svg" xmlns:xlink="http://www.w3.org/1999/xlink" width="300pt" height="300pt" viewBox="0 0 300 300"><defs><symbol overflow="visible"><path d="M.75 2.656v-13.234h7.5V2.656zm.844-.844h5.812V-9.733H1.594zm0 0"/></symbol><symbol overflow="visible" id="a"><path d="M1.47-10.938h2L8.31-1.78v-9.158H9.75V0h-2L2.906-9.14V0H1.47zm0 0"/></symbol><symbol overflow="visible" id="b"><path d="M5.906-9.938c-1.074 0-1.93.403-2.562 1.204-.625.804-.938 1.898-.938 3.28 0 1.376.313 2.466.938 3.266.633.805 1.488 1.204 2.562 1.204 1.07 0 1.922-.4 2.547-1.204.633-.8.953-1.89.953-3.265 0-1.383-.32-2.477-.953-3.28-.625-.802-1.476-1.204-2.547-1.204zm0-1.203c1.532 0 2.754.515 3.672 1.546.926 1.03 1.39 2.414 1.39 4.14 0 1.72-.464 3.095-1.39 4.126C8.66-.298 7.438.22 5.906.22c-1.53 0-2.76-.51-3.687-1.532C1.3-2.345.843-3.723.843-5.452c0-1.728.457-3.11 1.375-4.142.925-1.03 2.155-1.547 3.686-1.547zm0 0"/></symbol><symbol overflow="visible" id="c"><path d="M1.47-10.938h1.483v4.485h5.375v-4.484h1.485V0H8.328v-5.203H2.953V0H1.47zm0 0"/></symbol></defs><g><path fill="#fff" d="M0 0h300v300H0z"/><path d="M74.72 217.39l-3.447-36.023M71.273 181.367l-3.445-36.027M71.273 181.367L35.25 184.81M107.3 177.922l-36.027 3.445M67.828 145.34l36.027-3.445M103.855 141.895l3.446 36.027M124.37 112.086l-20.515 29.81M107.3 177.922l25.794 25.383M133.094 203.305l36.074 2.863M169.168 206.168l29.477-20.996M196.23 188.68l29.813 20.515M201.06 181.664l29.81 20.516M198.645 185.172l9.085-35.03M207.73 150.14l18.012-1.722" stroke-width="1.2" stroke="#000" stroke-miterlimit="10" fill="none"/><path d="M225.742 148.418l18.012-1.723" stroke-width="1.2" stroke="#00f" stroke-miterlimit="10" fill="none"/><path d="M212.145 158.273l14.406-1.378" stroke-width="1.2" stroke="#000" stroke-miterlimit="10" fill="none"/><path d="M226.55 156.895l14.41-1.38" stroke-width="1.2" stroke="#00f" stroke-miterlimit="10" fill="none"/><path d="M207.73 150.14l-15.558-32.675" stroke-width="1.2" stroke="#000" stroke-miterlimit="10" fill="none"/><path d="M243.754 146.695l10.5 14.74" stroke-width="1.2" stroke="#00f" stroke-miterlimit="10" fill="none"/><path d="M254.254 161.434l10.496 14.738" stroke-width="1.2" stroke="#f00" stroke-miterlimit="10" fill="none"/><path d="M238.754 137.695h11v18h-11zm0 0" fill="#fff"/><use xlink:href="#a" x="238.754" y="151.31" fill="#00f"/><path d="M253.75 167.172h23v18h-23zm0 0" fill="#fff"/><g fill="#f00"><use xlink:href="#b" x="253.75" y="180.786"/><use xlink:href="#c" x="265.299" y="180.786"/></g><path d="M192.172 117.465l-32.922-15.028M159.25 102.438l-34.88 9.648M127.84 109.617L106.844 80.14M120.902 114.555L99.91 85.078" stroke-width="1.2" stroke="#000" stroke-miterlimit="10" fill="none"/></g></svg>
